Origami/scalable/apps/yast-checkmedia.svg

<?xml version="1.0" encoding="UTF-8" standalone="no"?>
<svg
   xmlns:dc="http://purl.org/dc/elements/1.1/"
   xmlns:cc="http://creativecommons.org/ns#"
   xmlns:rdf="http://www.w3.org/1999/02/22-rdf-syntax-ns#"
   xmlns:svg="http://www.w3.org/2000/svg"
   xmlns="http://www.w3.org/2000/svg"
   xmlns:sodipodi="http://sodipodi.sourceforge.net/DTD/sodipodi-0.dtd"
   xmlns:inkscape="http://www.inkscape.org/namespaces/inkscape"
   width="64"
   height="64"
   version="1"
   id="svg16"
   sodipodi:docname="yast-cd_update.svg"
   inkscape:version="0.92.2 5c3e80d, 2017-08-06">
  <metadata
     id="metadata22">
    <rdf:RDF>
      <cc:Work
         rdf:about="">
        <dc:format>image/svg+xml</dc:format>
        <dc:type
           rdf:resource="http://purl.org/dc/dcmitype/StillImage" />
      </cc:Work>
    </rdf:RDF>
  </metadata>
  <defs
     id="defs20" />
  <sodipodi:namedview
     pagecolor="#ffffff"
     bordercolor="#666666"
     borderopacity="1"
     objecttolerance="10"
     gridtolerance="10"
     guidetolerance="10"
     inkscape:pageopacity="0"
     inkscape:pageshadow="2"
     inkscape:window-width="1366"
     inkscape:window-height="713"
     id="namedview18"
     showgrid="false"
     inkscape:zoom="10.429825"
     inkscape:cx="50.260631"
     inkscape:cy="10.820603"
     inkscape:window-x="0"
     inkscape:window-y="27"
     inkscape:window-maximized="1"
     inkscape:current-layer="svg16" />
  <path
     style="opacity:0.2"
     d="M 32,5 C 16.488,5 4,17.488 4,33 4,48.512 16.488,61 32,61 47.512,61 60,48.512 60,33 60,17.488 47.512,5 32,5 Z m 0,16 A 12,12 0 0 1 44,33 12,12 0 0 1 32,45 12,12 0 0 1 20,33 12,12 0 0 1 32,21 Z"
     id="path2" />
  <path
     style="fill:#858585"
     d="M 32,17 A 15,15 0 0 0 17,32 15,15 0 0 0 32,47 15,15 0 0 0 47,32 15,15 0 0 0 32,17 Z m 0,9 c 3.3138,0 6,2.6862 6,6 0,3.3138 -2.6862,6 -6,6 -3.3138,0 -6,-2.6862 -6,-6 0,-3.3138 2.6862,-6 6,-6 z"
     id="path4" />
  <path
     style="fill:#cccccc"
     d="M 32,4 C 16.488,4 4,16.488 4,32 4,47.512 16.488,60 32,60 47.512,60 60,47.512 60,32 60,16.488 47.512,4 32,4 Z m 0,16 A 12,12 0 0 1 44,32 12,12 0 0 1 32,44 12,12 0 0 1 20,32 12,12 0 0 1 32,20 Z"
     id="path6" />
  <path
     style="opacity:0.2;fill:#ffffff"
     d="M 32 4 C 16.488 4 4 16.488 4 32 C 4 32.11345 4.0112805 32.224113 4.0175781 32.335938 C 4.3691213 17.134181 16.710728 5 32 5 C 47.289272 5 59.630879 17.134181 59.982422 32.335938 C 59.98872 32.224113 60 32.11345 60 32 C 60 16.488 47.512 4 32 4 z M 20.050781 32.996094 A 12 12 0 0 0 20 34 A 12 12 0 0 0 20.025391 34.5 A 12 12 0 0 1 20.050781 33.996094 A 12 12 0 0 0 32 45 A 12 12 0 0 0 43.949219 34.003906 A 12 12 0 0 1 43.978516 34.595703 A 12 12 0 0 0 44 34 A 12 12 0 0 0 43.949219 33.003906 A 12 12 0 0 1 32 44 A 12 12 0 0 1 20.050781 32.996094 z"
     id="path8" />
  <path
     style="opacity:0.2"
     d="M 63.958,45.848 A 16,16 0 0 1 48,61 16,16 0 0 1 32.042,46.152 16,16 0 0 0 32,47 16,16 0 0 0 48,63 16,16 0 0 0 64,47 16,16 0 0 0 63.95704,45.84766 Z"
     id="path10" />
  <circle
     style="fill:#4d4d4d;fill-opacity:1"
     cx="48"
     cy="46"
     r="16"
     id="circle12" />
  <g
     style="fill:#ffffff"
     id="g4578"
     transform="matrix(1.5,0,0,1.5384618,-46.0425,-1.8353921)">
    <rect
       id="rect4673"
       height="3"
       width="12"
       y="24.593"
       x="56.695" />
    <rect
       id="rect4675"
       height="3"
       width="12"
       y="29.593"
       x="56.695" />
    <rect
       id="rect4677"
       height="3"
       width="12"
       y="34.592999"
       x="56.695" />
  </g>
</svg>

<svg width="64" height="64" version="1" xmlns="http://www.w3.org/2000/svg">
 <path d="m32 5c-15.512 0-28 12.488-28 28s12.488 28 28 28 28-12.488 28-28-12.488-28-28-28zm0 16a12 12 0 0 1 12 12 12 12 0 0 1 -12 12 12 12 0 0 1 -12 -12 12 12 0 0 1 12 -12z" style="opacity:.2"/>
 <path d="m32 17a15 15 0 0 0 -15 15 15 15 0 0 0 15 15 15 15 0 0 0 15 -15 15 15 0 0 0 -15 -15zm0 9c3.3138 0 6 2.6862 6 6s-2.6862 6-6 6-6-2.6862-6-6 2.6862-6 6-6z" style="fill:#858585"/>
 <path d="m32 4c-15.512 0-28 12.488-28 28s12.488 28 28 28 28-12.488 28-28-12.488-28-28-28zm0 16a12 12 0 0 1 12 12 12 12 0 0 1 -12 12 12 12 0 0 1 -12 -12 12 12 0 0 1 12 -12z" style="fill:#cccccc"/>
 <path d="M 32 4 C 16.488 4 4 16.488 4 32 C 4 32.11345 4.0112805 32.224113 4.0175781 32.335938 C 4.3691213 17.134181 16.710728 5 32 5 C 47.289272 5 59.630879 17.134181 59.982422 32.335938 C 59.98872 32.224113 60 32.11345 60 32 C 60 16.488 47.512 4 32 4 z M 20.050781 32.996094 A 12 12 0 0 0 20 34 A 12 12 0 0 0 20.025391 34.5 A 12 12 0 0 1 20.050781 33.996094 A 12 12 0 0 0 32 45 A 12 12 0 0 0 43.949219 34.003906 A 12 12 0 0 1 43.978516 34.595703 A 12 12 0 0 0 44 34 A 12 12 0 0 0 43.949219 33.003906 A 12 12 0 0 1 32 44 A 12 12 0 0 1 20.050781 32.996094 z" style="fill:#ffffff;opacity:.2"/>
 <path d="M 63.958,45.848 A 16,16 0 0 1 48,61 16,16 0 0 1 32.042,46.152 16,16 0 0 0 32,47 16,16 0 0 0 48,63 16,16 0 0 0 64,47 16,16 0 0 0 63.95704,45.84766 Z" style="opacity:.2"/>
 <circle cx="48" cy="46" r="16" style="fill:#4d4d4d"/>
 <g transform="matrix(1.5,0,0,1.5384618,-46.0425,-1.8353921)" style="fill:#ffffff">
  <rect x="56.695" y="24.593" width="12" height="3"/>
  <rect x="56.695" y="29.593" width="12" height="3"/>
  <rect x="56.695" y="34.592999" width="12" height="3"/>
 </g>
</svg>
